packages/nodes-base/nodes/N8nTrainingCustomerMessenger/n8nTrainingCustomerMessenger.svg

<svg width="200" height="200" viewBox="0 0 200 200" fill="none" xmlns="http://www.w3.org/2000/svg">
<path d="M5.13001 36.125C-1.23999 38.085 -1.23999 46.495 5.13001 48.455L80.56 71.625C86.06 73.315 90.76 72.375 93.21 71.625L146.09 55.375C149.4 57.655 154.08 63.545 156.81 66.555C155.85 69.305 156.16 72.435 158.15 74.855C160 77.105 162.74 78.025 165.45 77.835L179.83 106.225C181.08 108.695 184.3 109.375 186.44 107.615L198.17 97.985C200.31 96.225 200.27 92.945 198.09 91.235L173.04 71.625C173.75 69.005 173.39 66.135 171.54 63.885C169.5 61.405 166.37 60.485 163.41 60.985C160.25 57.415 158.38 56.065 155.5 52.495L168.65 48.455C175.02 46.495 175.02 38.085 168.65 36.125L93.21 12.945C89.1 11.685 84.67 11.685 80.56 12.945L5.13001 36.125Z" fill="#FF6D5A"/>
<path d="M134.621 70.931C133.536 70.6428 132.381 70.6515 131.278 70.9921L94.6157 82.2414C91.9644 83.0536 89.2081 83.4641 86.4431 83.4641C83.6431 83.4641 80.8781 83.0536 78.2268 82.2414L41.8703 71.0969C40.1815 70.5816 38.3615 70.8262 36.8827 71.7607C36.0077 72.3721 35.1502 73.0009 34.3189 73.6472C34.2052 73.7346 34.1002 73.8219 33.9864 73.9005C33.8202 74.0315 33.6627 74.1538 33.4964 74.2848C19.6101 85.403 11 100.853 11 117.937C11 132.566 17.3263 145.955 27.8439 156.488C24.1514 171.345 11.805 184.594 11.6563 184.742C11.0088 185.424 10.825 186.419 11.21 187.31C11.595 188.192 12.4175 188.725 13.3713 188.725C32.9627 188.725 47.6453 179.345 54.9166 173.563C64.5767 177.188 75.3043 179.284 86.6531 179.284C107.452 179.284 126.291 172.471 139.967 161.458C153.582 150.366 162 135.073 162 118.173C162 99.1677 151.351 82.189 134.621 70.931Z" fill="#717172"/>
</svg>

<svg xmlns="http://www.w3.org/2000/svg" width="200" height="200" fill="none"><path fill="#FF6D5A" d="M5.13 36.125c-6.37 1.96-6.37 10.37 0 12.33l75.43 23.17c5.5 1.69 10.2.75 12.65 0l52.88-16.25c3.31 2.28 7.99 8.17 10.72 11.18-.96 2.75-.65 5.88 1.34 8.3 1.85 2.25 4.59 3.17 7.3 2.98l14.38 28.39c1.25 2.47 4.47 3.15 6.61 1.39l11.73-9.63a4.326 4.326 0 0 0-.08-6.75l-25.05-19.61c.71-2.62.35-5.49-1.5-7.74-2.04-2.48-5.17-3.4-8.13-2.9-3.16-3.57-5.03-4.92-7.91-8.49l13.15-4.04c6.37-1.96 6.37-10.37 0-12.33l-75.44-23.18a21.64 21.64 0 0 0-12.65 0z"/><path fill="#717172" d="M134.621 70.931a6.05 6.05 0 0 0-3.343.061l-36.662 11.25a28 28 0 0 1-8.173 1.222c-2.8 0-5.565-.41-8.216-1.223L41.87 71.097a6.04 6.04 0 0 0-4.987.664 63 63 0 0 0-2.564 1.886c-.114.088-.219.175-.333.253l-.49.385C19.61 85.403 11 100.853 11 117.937c0 14.629 6.326 28.018 16.844 38.551-3.693 14.857-16.039 28.106-16.188 28.254a2.35 2.35 0 0 0-.446 2.568 2.32 2.32 0 0 0 2.161 1.415c19.592 0 34.274-9.38 41.546-15.162 9.66 3.625 20.387 5.721 31.736 5.721 20.799 0 39.638-6.813 53.314-17.826C153.582 150.366 162 135.073 162 118.173c0-19.005-10.649-35.984-27.379-47.242"/></svg>
